svgs/amazon_prime_video.svg

<?xml version="1.0" encoding="UTF-8" standalone="no"?><svg xmlns:android="http://schemas.android.com/apk/res/android" height="192" width="192" xmlns="http://www.w3.org/2000/svg">
  <path d="M76,22L82,22C82,18.686 79.314,16 76,16L76,22ZM116,22L116,16C112.686,16 110,18.686 110,22L116,22ZM116,170L110,170C110,173.314 112.686,176 116,176L116,170ZM76,170L76,176C79.314,176 82,173.314 82,170L76,170ZM32,162C32,169.732 38.268,176 46,176L46,164C44.895,164 44,163.105 44,162L32,162ZM32,30L32,162L44,162L44,30L32,30ZM46,16C38.268,16 32,22.268 32,30L44,30C44,28.895 44.895,28 46,28L46,16ZM76,16L46,16L46,28L76,28L76,16ZM96,36C88.268,36 82,29.732 82,22L70,22C70,36.359 81.641,48 96,48L96,36ZM110,22C110,29.732 103.732,36 96,36L96,48C110.359,48 122,36.359 122,22L110,22ZM146,16L116,16L116,28L146,28L146,16ZM160,30C160,22.268 153.732,16 146,16L146,28C147.105,28 148,28.895 148,30L160,30ZM160,162L160,30L148,30L148,162L160,162ZM146,176C153.732,176 160,169.732 160,162L148,162C148,163.105 147.105,164 146,164L146,176ZM116,176L146,176L146,164L116,164L116,176ZM96,156C103.732,156 110,162.268 110,170L122,170C122,155.641 110.359,144 96,144L96,156ZM82,170C82,162.268 88.268,156 96,156L96,144C81.641,144 70,155.641 70,170L82,170ZM46,176L76,176L76,164L46,164L46,176Z" fill="#000000"/>
  <path d="M62,92C62,92 76.571,104 96,104C115.429,104 130,92 130,92M130,92L124,111M130,92L114,86" fill="#000000" fill-opacity="0.0" stroke="#000000" stroke-linecap="round" stroke-linejoin="round" stroke-width="12"/>
</svg>

<svg width="192" height="192" viewBox="0 0 192 192" fill="none" xmlns="http://www.w3.org/2000/svg"><path d="M76 22h6a6 6 0 0 0-6-6v6Zm40 0v-6a6 6 0 0 0-6 6h6Zm0 148h-6a6 6 0 0 0 6 6v-6Zm-40 0v6a6 6 0 0 0 6-6h-6Zm-44-8c0 7.732 6.268 14 14 14v-12a2 2 0 0 1-2-2H32Zm0-132v132h12V30H32Zm14-14c-7.732 0-14 6.268-14 14h12a2 2 0 0 1 2-2V16Zm30 0H46v12h30V16Zm20 20c-7.732 0-14-6.268-14-14H70c0 14.36 11.64 26 26 26V36Zm14-14c0 7.732-6.268 14-14 14v12c14.359 0 26-11.64 26-26h-12Zm36-6h-30v12h30V16Zm14 14c0-7.732-6.268-14-14-14v12a2 2 0 0 1 2 2h12Zm0 132V30h-12v132h12Zm-14 14c7.732 0 14-6.268 14-14h-12a2 2 0 0 1-2 2v12Zm-30 0h30v-12h-30v12Zm-20-20c7.732 0 14 6.268 14 14h12c0-14.359-11.641-26-26-26v12Zm-14 14c0-7.732 6.268-14 14-14v-12c-14.36 0-26 11.641-26 26h12Zm-36 6h30v-12H46v12Z" fill="#000"/><path d="M62 92s14.571 12 34 12c19.429 0 34-12 34-12m0 0-6 19m6-19-16-6" stroke="#000" stroke-width="12" stroke-linecap="round" stroke-linejoin="round"/></svg>
